src/components/layout/Footer/inst.svg

<svg width="15" height="14" viewBox="0 0 15 14" fill="none" xmlns="http://www.w3.org/2000/svg">
<path d="M12.2662 0.410645H2.72897C1.65219 0.410645 0.831787 1.23105 0.831787 2.30783V11.845C0.831787 12.9218 1.65219 13.7422 2.72897 13.7422H12.2662C13.343 13.7422 14.1634 12.9218 14.1634 11.845V2.30783C14.1634 1.23105 13.343 0.410645 12.2662 0.410645ZM7.49758 11.0759C9.70242 11.0759 11.4971 9.33255 11.4971 7.23026C11.4971 6.87133 11.4458 6.46113 11.3432 6.15348H12.4713V11.5887C12.4713 11.845 12.2662 12.1014 11.9585 12.1014H3.03663C2.78025 12.1014 2.52387 11.8963 2.52387 11.5887V6.1022H3.70321C3.60066 6.46113 3.54938 6.82006 3.54938 7.17899C3.4981 9.33255 5.29274 11.0759 7.49758 11.0759ZM7.49758 9.53765C6.06187 9.53765 4.93381 8.40959 4.93381 7.02516C4.93381 5.64073 6.06187 4.51267 7.49758 4.51267C8.93329 4.51267 10.0613 5.64073 10.0613 7.02516C10.0613 8.46087 8.93329 9.53765 7.49758 9.53765ZM12.42 4.05119C12.42 4.35884 12.1636 4.61522 11.856 4.61522H10.4203C10.1126 4.61522 9.85624 4.35884 9.85624 4.05119V2.66676C9.85624 2.35911 10.1126 2.10273 10.4203 2.10273H11.856C12.1636 2.10273 12.42 2.35911 12.42 2.66676V4.05119Z" fill="white"/>
</svg>

<svg xmlns="http://www.w3.org/2000/svg" width="15" height="14" fill="none"><path fill="#fff" d="M12.266.41H2.73C1.652.41.832 1.232.832 2.309v9.537c0 1.077.82 1.897 1.897 1.897h9.537c1.077 0 1.897-.82 1.897-1.897V2.308c0-1.077-.82-1.897-1.897-1.897ZM7.498 11.077c2.204 0 4-1.743 4-3.846 0-.359-.052-.769-.155-1.077h1.128v5.436a.514.514 0 0 1-.512.512H3.037a.514.514 0 0 1-.513-.512V6.102h1.18a3.903 3.903 0 0 0-.155 1.077c-.05 2.154 1.744 3.897 3.949 3.897Zm0-1.538c-1.436 0-2.564-1.128-2.564-2.513 0-1.384 1.128-2.512 2.564-2.512 1.435 0 2.563 1.128 2.563 2.512 0 1.436-1.128 2.513-2.563 2.513ZM12.42 4.05a.569.569 0 0 1-.564.564H10.42a.569.569 0 0 1-.564-.564V2.667c0-.308.257-.564.564-.564h1.436c.308 0 .564.256.564.564V4.05Z"/></svg>
